sources/design/Outline/u.svg

<svg:svg xmlns:cc="http://creativecommons.org/ns#" xmlns:dc="http://purl.org/dc/elements/1.1/" xmlns:inkscape="http://www.inkscape.org/namespaces/inkscape" xmlns:rdf="http://www.w3.org/1999/02/22-rdf-syntax-ns#" xmlns:sodipodi="http://sodipodi.sourceforge.net/DTD/sodipodi-0.dtd" xmlns:svg="http://www.w3.org/2000/svg" xml:space="preserve" width="1000" height="1000" version="1.1" style="clip-rule:evenodd;fill-rule:evenodd;image-rendering:optimizeQuality;shape-rendering:geometricPrecision;text-rendering:geometricPrecision" viewBox="0 0 1000 1000" id="svg10" sodipodi:docname="u.svg" inkscape:version="1.1.1 (3bf5ae0d25, 2021-09-20)"><svg:text text-anchor="middle" x="253.84598" y="143.09555" id="top" inkscape:label="top" style="clip-rule:evenodd;fill-rule:evenodd;image-rendering:optimizeQuality;shape-rendering:geometricPrecision;text-rendering:geometricPrecision">✛</svg:text><svg:metadata id="metadata14"><rdf:RDF><cc:Work rdf:about=""><dc:format>image/svg+xml</dc:format><dc:type rdf:resource="http://purl.org/dc/dcmitype/StillImage" /></cc:Work></rdf:RDF></svg:metadata><sodipodi:namedview pagecolor="#ffffff" bordercolor="#666666" borderopacity="1" objecttolerance="10" gridtolerance="10" guidetolerance="10" inkscape:pageopacity="0" inkscape:pageshadow="2" inkscape:window-width="1920" inkscape:window-height="1009" id="namedview12" showgrid="false" inkscape:zoom="0.84890884" inkscape:cx="136.05701" inkscape:cy="471.19311" inkscape:window-x="0" inkscape:window-y="0" inkscape:window-maximized="1" inkscape:current-layer="svg10" showguides="true" inkscape:guide-bbox="true" inkscape:document-rotation="0" inkscape:pagecheckerboard="0"><sodipodi:guide position="0,1000" orientation="0,1" id="guide16" inkscape:label="" inkscape:locked="true" inkscape:color="rgb(0,0,255)" /><sodipodi:guide position="1763.3122,2036.1693" orientation="1000,0" id="guide18" /><sodipodi:guide position="0,200" orientation="0,1" id="guide20" inkscape:label="base" inkscape:locked="true" inkscape:color="rgb(0,0,255)" /><inkscape:grid type="xygrid" id="grid24" originx="-473.37552" originy="-489.69235" /><sodipodi:guide position="0,0" orientation="0,1" id="guide34" inkscape:label="bottom" inkscape:locked="true" inkscape:color="rgb(0,0,255)" /><sodipodi:guide position="225.05109,1693.3186" orientation="0,1" id="guide44" inkscape:label="" inkscape:locked="false" inkscape:color="rgb(0,0,255)" /><sodipodi:guide position="0,900" orientation="0,1" id="guide46" inkscape:label="" inkscape:locked="true" inkscape:color="rgb(0,0,255)" /><sodipodi:guide position="463.48719,931.07852" orientation="1,0" id="guide841" inkscape:label="width" />    <sodipodi:guide position="550.57638,801.71668" orientation="0,-1" id="guide849" /></sodipodi:namedview>
 <svg:defs id="defs4"><inkscape:path-effect effect="fillet_chamfer" id="path-effect1797" is_visible="true" lpeversion="1" satellites_param="F,0,0,1,0,12.117886,0,1 @ F,0,1,1,0,12.117886,0,1 @ F,0,0,1,0,0,0,1 @ F,0,0,1,0,0,0,1 @ F,0,0,1,0,0,0,1 @ F,0,0,1,0,0,0,1 @ F,0,0,1,0,0,0,1 @ F,0,0,1,0,0,0,1 @ F,0,0,1,0,0,0,1 @ F,0,0,1,0,0,0,1 @ F,0,0,1,0,0,0,1 @ F,0,0,1,0,0,0,1 @ F,0,1,1,0,12.117886,0,1 @ F,0,1,1,0,12.117886,0,1 @ F,0,0,1,0,0,0,1 @ F,0,0,1,0,0,0,1 @ F,0,1,1,0,12.117886,0,1 @ F,0,1,1,0,12.117886,0,1 @ F,0,0,1,0,0,0,1 @ F,0,0,1,0,0,0,1 @ F,0,0,1,0,0,0,1 @ F,0,0,1,0,0,0,1 @ F,0,0,1,0,0,0,1 @ F,0,0,1,0,0,0,1 @ F,0,0,1,0,0,0,1 @ F,0,0,1,0,0,0,1 @ F,0,0,1,0,0,0,1" unit="px" method="auto" mode="F" radius="0" chamfer_steps="1" flexible="false" use_knot_distance="true" apply_no_radius="true" apply_with_radius="true" only_selected="false" hide_knots="false" /><inkscape:path-effect effect="fillet_chamfer" id="path-effect853" is_visible="true" lpeversion="1" satellites_param="F,0,1,1,0,18.171216,0,1 @ F,0,1,1,0,18.171216,0,1 @ F,0,0,1,0,0,0,1 @ F,0,0,1,0,0,0,1 @ F,0,0,1,0,0,0,1 @ F,0,0,1,0,0,0,1 @ F,0,0,1,0,0,0,1 @ F,0,0,1,0,0,0,1 @ F,0,0,1,0,0,0,1 @ F,0,0,1,0,0,0,1 @ F,0,0,1,0,0,0,1 @ F,0,0,1,0,0,0,1 @ F,0,1,1,0,18.171216,0,1 @ F,0,1,1,0,18.171216,0,1 @ F,0,0,1,0,0,0,1 @ F,0,0,1,0,0,0,1 @ F,0,1,1,0,18.171216,0,1 @ F,0,1,1,0,18.171216,0,1 @ F,0,0,1,0,0,0,1 @ F,0,0,1,0,0,0,1 @ F,0,0,1,0,0,0,1 @ F,0,0,1,0,0,0,1 @ F,0,0,1,0,0,0,1 @ F,0,0,1,0,0,0,1 @ F,0,0,1,0,0,0,1 @ F,0,0,1,0,0,0,1 @ F,0,0,1,0,0,0,1 @ F,0,0,1,0,0,0,1" unit="px" method="auto" mode="F" radius="0" chamfer_steps="1" flexible="false" use_knot_distance="true" apply_no_radius="true" apply_with_radius="true" only_selected="true" hide_knots="false" /><inkscape:path-effect effect="spiro" id="path-effect862" is_visible="true" lpeversion="1" /><inkscape:path-effect effect="fillet_chamfer" id="path-effect850" is_visible="true" lpeversion="1" satellites_param="F,0,0,1,0,19.237982,0,1 @ F,0,1,1,0,37.744915,0,1 @ F,0,0,1,0,0,0,1 @ F,0,0,1,0,0,0,1 @ F,0,0,1,0,0,0,1 @ F,0,0,1,0,0,0,1 @ F,0,0,1,0,0,0,1 @ F,0,0,1,0,0,0,1 @ F,0,0,1,0,0,0,1 @ F,0,0,1,0,0,0,1 @ F,0,1,1,0,37.744915,0,1 @ F,0,0,1,0,27.028896,0,1 @ F,0,0,1,0,0,0,1 @ F,0,0,1,0,0,0,1 @ F,0,0,1,0,0,0,1 @ F,0,0,1,0,0,0,1 @ F,0,0,1,0,0,0,1 @ F,0,0,1,0,0,0,1 @ F,0,0,1,0,0,0,1 @ F,0,0,1,0,0,0,1" unit="px" method="auto" mode="F" radius="0" chamfer_steps="1" flexible="false" use_knot_distance="true" apply_no_radius="true" apply_with_radius="true" only_selected="true" hide_knots="false" /><inkscape:path-effect effect="spiro" id="path-effect883" is_visible="true" lpeversion="1" /><inkscape:path-effect effect="spiro" id="path-effect849" is_visible="true" lpeversion="1" /><inkscape:path-effect effect="spiro" id="path-effect851" is_visible="true" lpeversion="1" />
  <svg:style type="text/css" id="style2">
   
    .fil0 {fill:#EF7F1A;fill-rule:nonzero}
   
  </svg:style>
 <inkscape:path-effect effect="spiro" id="path-effect1214" is_visible="true" lpeversion="1" /><inkscape:path-effect effect="spiro" id="path-effect1195" is_visible="true" lpeversion="1" /><inkscape:path-effect effect="spiro" id="path-effect992" is_visible="true" lpeversion="1" /><inkscape:path-effect effect="spiro" id="path-effect1060" is_visible="true" lpeversion="1" /><inkscape:path-effect effect="spiro" id="path-effect1047" is_visible="true" lpeversion="1" /><inkscape:path-effect effect="spiro" id="path-effect1085" is_visible="true" lpeversion="1" /><inkscape:path-effect effect="spiro" id="path-effect1286" is_visible="true" lpeversion="1" /><inkscape:path-effect effect="fillet_chamfer" id="path-effect852" is_visible="true" lpeversion="1" satellites_param="F,0,1,1,0,34.675002,0,1 @ F,0,1,1,0,34.675002,0,1 @ F,0,0,1,0,0,0,1 @ F,0,0,1,0,0,0,1 @ F,0,0,1,0,0,0,1 @ F,0,0,1,0,0,0,1 @ F,0,0,1,0,0,0,1 @ F,0,0,1,0,0,0,1 @ F,0,0,1,0,0,0,1 @ F,0,0,1,0,0,0,1 @ F,0,0,1,0,0,0,1 @ F,0,0,1,0,0,0,1 @ F,0,1,1,0,34.675002,0,1 @ F,0,1,1,0,34.675002,0,1 @ F,0,0,1,0,0,0,1 @ F,0,0,1,0,0,0,1 @ F,0,1,1,0,34.675002,0,1 @ F,0,1,1,0,34.675002,0,1 @ F,0,0,1,0,0,0,1 @ F,0,0,1,0,0,0,1 @ F,0,0,1,0,0,0,1 @ F,0,0,1,0,0,0,1 @ F,0,0,1,0,0,0,1 @ F,0,0,1,0,0,0,1 @ F,0,0,1,0,0,0,1 @ F,0,0,1,0,0,0,1 @ F,0,0,1,0,0,0,1" unit="px" method="auto" mode="F" radius="0" chamfer_steps="1" flexible="false" use_knot_distance="true" apply_no_radius="true" apply_with_radius="true" only_selected="true" hide_knots="false" /></svg:defs>
 
<svg:g id="path847"><svg:path style="color:#000000;fill:#1a5fb4;fill-rule:nonzero;stroke-linecap:round;stroke-linejoin:round;-inkscape-stroke:none;paint-order:fill stroke markers" d="M 126.84375,167.64258 C 120.77661,167.18315 114.74817,168.06735 109.51758,170.02148 L -0.671875,211.1875 C -21.96862,219.1439 -32.598702,247.82235 -22.798828,267.5957 C -7.624058100000001,298.21407 1.594703599999999,331.91946 4.0683593999999985,365.97461000000004 C 6.556907599999999,400.23478000000006 2.3136398999999983,436.48864000000003 -2.5332031000000015,474.29883000000007 C -12.375039000000001,551.07491 -24.40072,636.49337 5.658203099999998,718.2031200000001 C 14.698674999999998,742.7780100000001 27.832175999999997,767.2504800000002 47.486328,787.8261700000002 C 67.316352,808.5859900000002 93.494617,824.7372100000001 123.9668,829.8281200000001 C 161.40910000000002,836.0835200000001 197.32474000000002,824.5315300000001 226.23047000000003,806.3750000000001 C 254.74543000000003,788.4639200000001 276.44374000000005,764.8122300000001 295.46875,742.1543000000001 C 303.60534,732.4639800000001 311.4409,722.5286500000002 319.13477,712.4863300000002 L 315.02734,786.2753900000002 C 313.65038999999996,811.0096900000002 336.8229,831.7303600000002 361.25,827.6074200000003 L 455.84569999999997,811.6406200000002 C 478.39324,807.8349300000002 494.37807,783.6048700000002 489.23632999999995,761.4628900000002 C 484.14971999999995,739.5583300000003 479.55992,717.5401300000002 475.47069999999997,695.4277300000002 C 451.45525999999995,565.5645600000003 445.10648,432.2627300000002 468.19140999999996,304.1210900000002 C 471.86093999999997,283.7519600000002 476.26946,263.5151600000002 481.4043,243.4648400000002 C 487.01865999999995,221.5420900000002 471.69836,196.9033000000002 449.25586,192.5429700000002 L 339.11914,171.14453 C 328.58168,169.09722 314.00666,171.43637 304.21289,181.57617 C 294.41912,191.71597 292.60054,206.15394999999998 294.89844,216.56445 C 300.02003,239.76751 304.18571,263.18293 307.37891,286.72852 C 312.64405,325.552 315.16972000000004,364.27255 312.89258,402.21484 C 309.66495000000003,455.99433 296.56122,509.09472 272.81641,556.47852 C 256.72301000000004,588.59356 235.60652000000002,616.78306 209.03906,632.7890600000001 C 201.91219,637.08276 194.98289,640.1103400000001 188.67187,641.5703100000001 C 182.48279000000002,643.0020700000001 176.56714000000002,642.9062600000001 172.18555,641.67187 C 166.41427000000002,640.04598 159.60471,635.24979 154.30859,628.32422 C 148.83656000000002,621.1686 144.39807000000002,611.44706 140.90039000000002,600.12109 C 130.37558,566.04029 130.33923000000001,527.361 135.22852,488.09765999999996 C 140.13127,448.72619999999995 149.85407,408.07178 156.24023,364.86132999999995 C 164.1119,311.59961999999996 166.13231,257.50352999999996 162.26561999999998,203.80663999999996 C 161.45547,192.55599999999995 155.18806999999998,180.15048999999996 144.4082,173.32030999999995 C 139.01827,169.90521999999996 132.91089,168.10199999999995 126.84375,167.64257999999995 L 126.84375,167.64258 M 103.79297,236.21094 C 105.01001,276.27213 102.74328,316.44767 96.884766,356.08789 C 91.017377,395.78814 81.143361,436.8861 75.689453,480.68359 C 70.222083,524.5892 69.366931,571.8253599999999 83.572266,617.82422 C 88.334645,633.24547 95.115571,649.69225 106.64844,664.7734399999999 C 118.35722,680.08467 134.74253,693.4587999999999 155.91602,699.42383 C 171.88687000000002,703.9231599999999 187.78376,703.3593099999999 202.19531,700.0253899999999 C 216.48493000000002,696.7196799999999 229.01714,690.8015699999999 240.00195000000002,684.1835899999999 C 280.54849,659.7556699999999 307.25503000000003,621.5913499999999 326.30859000000004,583.6445299999998 L 325.64062,595.6269499999999 C 303.29612000000003,633.6304199999998 277.85848,669.8218299999999 249.51953000000003,703.5722699999999 C 231.89556000000005,724.5616299999999 214.06365000000002,743.1625799999999 194.31641000000002,755.5664099999999 C 174.95992,767.7247799999999 152.62538,773.7846099999999 133.85352,770.6484399999999 C 118.62694,768.10457 103.04592,759.1264399999999 90.873047,746.38281 C 78.524306,733.45506 68.92461,716.39653 61.96875,697.48828 C 38.580278,633.91094 47.136989,558.70141 56.978516,481.92773 C 61.855496,443.88245 66.961993,403.642 63.910156,361.62695 C 61.375909,326.73764 53.070398,292.4169 39.628906,260.18164 L 103.79297,236.21094 M 360.0,236.32227 L 418.74219,247.73633 C 415.2009,262.91296 411.90572,278.14651000000003 409.14258,293.48437 C 397.11338,360.25702 392.65575,427.8195 394.08398,495.17969000000005 L 373.49805,485.13086000000004 A 30.003,30.003 0.0 0,0 361.89648,482.68359000000004 C 367.56434,457.34067000000005 371.23733,431.59882000000005 372.78516,405.80859000000004 C 375.36631,362.80073000000004 372.46709000000004,320.20272000000006 366.83398,278.66602 C 364.91228,264.49597 362.57682,250.3874 360.0,236.32227 M 399.48242,585.9394500000001 C 403.37685,626.3804400000001 409.12037,666.5910500000001 416.47069999999997,706.33789 C 419.52698999999996,722.8647100000001 422.94847,739.3198 426.54101999999995,755.73828 L 376.3496099999999,764.20898 L 384.75780999999995,613.17187 C 389.8331299999999,604.18537 394.73637999999994,595.10499 399.48241999999993,585.93945 L 399.48242,585.9394500000001" id="path5518" /></svg:g></svg:svg>

<svg:svg xmlns:cc="http://creativecommons.org/ns#" xmlns:dc="http://purl.org/dc/elements/1.1/" xmlns:inkscape="http://www.inkscape.org/namespaces/inkscape" xmlns:rdf="http://www.w3.org/1999/02/22-rdf-syntax-ns#" xmlns:sodipodi="http://sodipodi.sourceforge.net/DTD/sodipodi-0.dtd" xmlns:svg="http://www.w3.org/2000/svg" xml:space="preserve" width="1000" height="1000" version="1.1" style="clip-rule:evenodd;fill-rule:evenodd;image-rendering:optimizeQuality;shape-rendering:geometricPrecision;text-rendering:geometricPrecision" viewBox="0 0 1000 1000" id="svg10" sodipodi:docname="u.svg" inkscape:version="1.1.1 (3bf5ae0d25, 2021-09-20)"><svg:text text-anchor="middle" x="253.84598" y="143.09555" id="top" inkscape:label="top" style="clip-rule:evenodd;fill-rule:evenodd;image-rendering:optimizeQuality;shape-rendering:geometricPrecision;text-rendering:geometricPrecision">✛</svg:text><svg:metadata id="metadata14"><rdf:RDF><cc:Work rdf:about=""><dc:format>image/svg+xml</dc:format><dc:type rdf:resource="http://purl.org/dc/dcmitype/StillImage" /></cc:Work></rdf:RDF></svg:metadata><sodipodi:namedview pagecolor="#ffffff" bordercolor="#666666" borderopacity="1" objecttolerance="10" gridtolerance="10" guidetolerance="10" inkscape:pageopacity="0" inkscape:pageshadow="2" inkscape:window-width="1920" inkscape:window-height="1009" id="namedview12" showgrid="false" inkscape:zoom="0.84890884" inkscape:cx="136.05701" inkscape:cy="471.19311" inkscape:window-x="0" inkscape:window-y="0" inkscape:window-maximized="1" inkscape:current-layer="svg10" showguides="true" inkscape:guide-bbox="true" inkscape:document-rotation="0" inkscape:pagecheckerboard="0"><sodipodi:guide position="0,1000" orientation="0,1" id="guide16" inkscape:label="" inkscape:locked="true" inkscape:color="rgb(0,0,255)" /><sodipodi:guide position="1763.3122,2036.1693" orientation="1000,0" id="guide18" /><sodipodi:guide position="0,200" orientation="0,1" id="guide20" inkscape:label="base" inkscape:locked="true" inkscape:color="rgb(0,0,255)" /><inkscape:grid type="xygrid" id="grid24" originx="-473.37552" originy="-489.69235" /><sodipodi:guide position="0,0" orientation="0,1" id="guide34" inkscape:label="bottom" inkscape:locked="true" inkscape:color="rgb(0,0,255)" /><sodipodi:guide position="225.05109,1693.3186" orientation="0,1" id="guide44" inkscape:label="" inkscape:locked="false" inkscape:color="rgb(0,0,255)" /><sodipodi:guide position="0,900" orientation="0,1" id="guide46" inkscape:label="" inkscape:locked="true" inkscape:color="rgb(0,0,255)" /><sodipodi:guide position="463.48719,931.07852" orientation="1,0" id="guide841" inkscape:label="width" />    <sodipodi:guide position="550.57638,801.71668" orientation="0,-1" id="guide849" /></sodipodi:namedview>
 <svg:defs id="defs4"><inkscape:path-effect effect="fillet_chamfer" id="path-effect1797" is_visible="true" lpeversion="1" satellites_param="F,0,0,1,0,12.117886,0,1 @ F,0,1,1,0,12.117886,0,1 @ F,0,0,1,0,0,0,1 @ F,0,0,1,0,0,0,1 @ F,0,0,1,0,0,0,1 @ F,0,0,1,0,0,0,1 @ F,0,0,1,0,0,0,1 @ F,0,0,1,0,0,0,1 @ F,0,0,1,0,0,0,1 @ F,0,0,1,0,0,0,1 @ F,0,0,1,0,0,0,1 @ F,0,0,1,0,0,0,1 @ F,0,1,1,0,12.117886,0,1 @ F,0,1,1,0,12.117886,0,1 @ F,0,0,1,0,0,0,1 @ F,0,0,1,0,0,0,1 @ F,0,1,1,0,12.117886,0,1 @ F,0,1,1,0,12.117886,0,1 @ F,0,0,1,0,0,0,1 @ F,0,0,1,0,0,0,1 @ F,0,0,1,0,0,0,1 @ F,0,0,1,0,0,0,1 @ F,0,0,1,0,0,0,1 @ F,0,0,1,0,0,0,1 @ F,0,0,1,0,0,0,1 @ F,0,0,1,0,0,0,1 @ F,0,0,1,0,0,0,1" unit="px" method="auto" mode="F" radius="0" chamfer_steps="1" flexible="false" use_knot_distance="true" apply_no_radius="true" apply_with_radius="true" only_selected="false" hide_knots="false" /><inkscape:path-effect effect="fillet_chamfer" id="path-effect853" is_visible="true" lpeversion="1" satellites_param="F,0,1,1,0,18.171216,0,1 @ F,0,1,1,0,18.171216,0,1 @ F,0,0,1,0,0,0,1 @ F,0,0,1,0,0,0,1 @ F,0,0,1,0,0,0,1 @ F,0,0,1,0,0,0,1 @ F,0,0,1,0,0,0,1 @ F,0,0,1,0,0,0,1 @ F,0,0,1,0,0,0,1 @ F,0,0,1,0,0,0,1 @ F,0,0,1,0,0,0,1 @ F,0,0,1,0,0,0,1 @ F,0,1,1,0,18.171216,0,1 @ F,0,1,1,0,18.171216,0,1 @ F,0,0,1,0,0,0,1 @ F,0,0,1,0,0,0,1 @ F,0,1,1,0,18.171216,0,1 @ F,0,1,1,0,18.171216,0,1 @ F,0,0,1,0,0,0,1 @ F,0,0,1,0,0,0,1 @ F,0,0,1,0,0,0,1 @ F,0,0,1,0,0,0,1 @ F,0,0,1,0,0,0,1 @ F,0,0,1,0,0,0,1 @ F,0,0,1,0,0,0,1 @ F,0,0,1,0,0,0,1 @ F,0,0,1,0,0,0,1 @ F,0,0,1,0,0,0,1" unit="px" method="auto" mode="F" radius="0" chamfer_steps="1" flexible="false" use_knot_distance="true" apply_no_radius="true" apply_with_radius="true" only_selected="true" hide_knots="false" /><inkscape:path-effect effect="spiro" id="path-effect862" is_visible="true" lpeversion="1" /><inkscape:path-effect effect="fillet_chamfer" id="path-effect850" is_visible="true" lpeversion="1" satellites_param="F,0,0,1,0,19.237982,0,1 @ F,0,1,1,0,37.744915,0,1 @ F,0,0,1,0,0,0,1 @ F,0,0,1,0,0,0,1 @ F,0,0,1,0,0,0,1 @ F,0,0,1,0,0,0,1 @ F,0,0,1,0,0,0,1 @ F,0,0,1,0,0,0,1 @ F,0,0,1,0,0,0,1 @ F,0,0,1,0,0,0,1 @ F,0,1,1,0,37.744915,0,1 @ F,0,0,1,0,27.028896,0,1 @ F,0,0,1,0,0,0,1 @ F,0,0,1,0,0,0,1 @ F,0,0,1,0,0,0,1 @ F,0,0,1,0,0,0,1 @ F,0,0,1,0,0,0,1 @ F,0,0,1,0,0,0,1 @ F,0,0,1,0,0,0,1 @ F,0,0,1,0,0,0,1" unit="px" method="auto" mode="F" radius="0" chamfer_steps="1" flexible="false" use_knot_distance="true" apply_no_radius="true" apply_with_radius="true" only_selected="true" hide_knots="false" /><inkscape:path-effect effect="spiro" id="path-effect883" is_visible="true" lpeversion="1" /><inkscape:path-effect effect="spiro" id="path-effect849" is_visible="true" lpeversion="1" /><inkscape:path-effect effect="spiro" id="path-effect851" is_visible="true" lpeversion="1" />
  <svg:style type="text/css" id="style2">
   
    .fil0 {fill:#EF7F1A;fill-rule:nonzero}
   
  </svg:style>
 <inkscape:path-effect effect="spiro" id="path-effect1214" is_visible="true" lpeversion="1" /><inkscape:path-effect effect="spiro" id="path-effect1195" is_visible="true" lpeversion="1" /><inkscape:path-effect effect="spiro" id="path-effect992" is_visible="true" lpeversion="1" /><inkscape:path-effect effect="spiro" id="path-effect1060" is_visible="true" lpeversion="1" /><inkscape:path-effect effect="spiro" id="path-effect1047" is_visible="true" lpeversion="1" /><inkscape:path-effect effect="spiro" id="path-effect1085" is_visible="true" lpeversion="1" /><inkscape:path-effect effect="spiro" id="path-effect1286" is_visible="true" lpeversion="1" /><inkscape:path-effect effect="fillet_chamfer" id="path-effect852" is_visible="true" lpeversion="1" satellites_param="F,0,1,1,0,34.675002,0,1 @ F,0,1,1,0,34.675002,0,1 @ F,0,0,1,0,0,0,1 @ F,0,0,1,0,0,0,1 @ F,0,0,1,0,0,0,1 @ F,0,0,1,0,0,0,1 @ F,0,0,1,0,0,0,1 @ F,0,0,1,0,0,0,1 @ F,0,0,1,0,0,0,1 @ F,0,0,1,0,0,0,1 @ F,0,0,1,0,0,0,1 @ F,0,0,1,0,0,0,1 @ F,0,1,1,0,34.675002,0,1 @ F,0,1,1,0,34.675002,0,1 @ F,0,0,1,0,0,0,1 @ F,0,0,1,0,0,0,1 @ F,0,1,1,0,34.675002,0,1 @ F,0,1,1,0,34.675002,0,1 @ F,0,0,1,0,0,0,1 @ F,0,0,1,0,0,0,1 @ F,0,0,1,0,0,0,1 @ F,0,0,1,0,0,0,1 @ F,0,0,1,0,0,0,1 @ F,0,0,1,0,0,0,1 @ F,0,0,1,0,0,0,1 @ F,0,0,1,0,0,0,1 @ F,0,0,1,0,0,0,1" unit="px" method="auto" mode="F" radius="0" chamfer_steps="1" flexible="false" use_knot_distance="true" apply_no_radius="true" apply_with_radius="true" only_selected="true" hide_knots="false" /></svg:defs>
 
<svg:g id="path847"><svg:path style="color:#000000;fill:#1a5fb4;fill-rule:nonzero;stroke-linecap:round;stroke-linejoin:round;-inkscape-stroke:none" d="m 126.84375,167.64258 c -6.06714,-0.45943 -12.09558,0.42477 -17.32617,2.3789 L -0.671875,211.1875 c -21.296745,7.9564 -31.926827,36.63485 -22.126953,56.4082 15.1747699,30.61837 24.3935316,64.32376 26.8671874,98.37891 2.4885482,34.26017 -1.7547195,70.51403 -6.6015625,108.32422 -9.8418359,76.77608 -21.8675169,162.19454 8.1914062,243.90429 9.0404719,24.57489 22.1739729,49.04736 41.8281249,69.62305 19.830024,20.75982 46.008289,36.91104 76.480472,42.00195 37.4423,6.2554 73.35794,-5.29659 102.26367,-23.45312 28.51496,-17.91108 50.21327,-41.56277 69.23828,-64.2207 8.13659,-9.69032 15.97215,-19.62565 23.66602,-29.66797 l -4.10743,73.78906 c -1.37695,24.7343 21.79556,45.45497 46.22266,41.33203 l 94.5957,-15.9668 c 22.54754,-3.80569 38.53237,-28.03575 33.39063,-50.17773 -5.08661,-21.90456 -9.67641,-43.92276 -13.76563,-66.03516 -24.01544,-129.86317 -30.36422,-263.165 -7.27929,-391.30664 3.66953,-20.36913 8.07805,-40.60593 13.21289,-60.65625 5.61436,-21.92275 -9.70594,-46.56154 -32.14844,-50.92187 L 339.11914,171.14453 c -10.53746,-2.04731 -25.11248,0.29184 -34.90625,10.43164 -9.79377,10.1398 -11.61235,24.57778 -9.31445,34.98828 5.12159,23.20306 9.28727,46.61848 12.48047,70.16407 5.26514,38.82348 7.79081,77.54403 5.51367,115.48632 -3.22763,53.77949 -16.33136,106.87988 -40.07617,154.26368 -16.0934,32.11504 -37.20989,60.30454 -63.77735,76.31054 -7.12687,4.2937 -14.05617,7.32128 -20.36719,8.78125 -6.18908,1.43176 -12.10473,1.33595 -16.48632,0.10156 -5.77128,-1.62589 -12.58084,-6.42208 -17.87696,-13.34765 -5.47203,-7.15562 -9.91052,-16.87716 -13.4082,-28.20313 -10.52481,-34.0808 -10.56116,-72.76009 -5.67187,-112.02343 4.90275,-39.37146 14.62555,-80.02588 21.01171,-123.23633 7.87167,-53.26171 9.89208,-107.3578 6.02539,-161.05469 -0.81015,-11.25064 -7.07755,-23.65615 -17.85742,-30.48633 -5.38993,-3.41509 -11.49731,-5.21831 -17.56445,-5.67773 z m -23.05078,68.56836 c 1.21704,40.06119 -1.04969,80.23673 -6.908204,119.87695 -5.867389,39.70025 -15.741405,80.79821 -21.195313,124.5957 -5.46737,43.90561 -6.322522,91.14177 7.882813,137.14063 4.762379,15.42125 11.543305,31.86803 23.076174,46.94922 11.70878,15.31123 28.09409,28.68536 49.26758,34.65039 15.97085,4.49933 31.86774,3.93548 46.27929,0.60156 14.28962,-3.30571 26.82183,-9.22382 37.80664,-15.8418 40.54654,-24.42792 67.25308,-62.59224 86.30664,-100.53906 l -0.66797,11.98242 c -22.3445,38.00347 -47.78214,74.19488 -76.12109,107.94532 -17.62397,20.98936 -35.45588,39.59031 -55.20312,51.99414 -19.35649,12.15837 -41.69103,18.2182 -60.46289,15.08203 -15.22658,-2.54387 -30.8076,-11.522 -42.980473,-24.26563 C 78.524306,733.45506 68.92461,716.39653 61.96875,697.48828 38.580278,633.91094 47.136989,558.70141 56.978516,481.92773 61.855496,443.88245 66.961993,403.642 63.910156,361.62695 61.375909,326.73764 53.070398,292.4169 39.628906,260.18164 Z M 360,236.32227 l 58.74219,11.41406 c -3.54129,15.17663 -6.83647,30.41018 -9.59961,45.74804 -12.0292,66.77265 -16.48683,134.33513 -15.0586,201.69532 l -20.58593,-10.04883 a 30.003,30.003 0 0 0 -11.60157,-2.44727 c 5.66786,-25.34292 9.34085,-51.08477 10.88868,-76.875 2.58115,-43.00786 -0.31807,-85.60587 -5.95118,-127.14257 C 364.91228,264.49597 362.57682,250.3874 360,236.32227 Z m 39.48242,349.61718 c 3.89443,40.44099 9.63795,80.6516 16.98828,120.39844 3.05629,16.52682 6.47777,32.98191 10.07032,49.40039 l -50.19141,8.4707 8.4082,-151.03711 c 5.07532,-8.9865 9.97857,-18.06688 14.72461,-27.23242 z" id="path5506" /></svg:g></svg:svg>
